X:4
T:Wohlfahrt 4  (Op. 54 No. 2 )
C:Franz Wohlfahrt
L:1/8
Q:1/4=120
M:4/4
I:linebreak $
K:C
"G" ((Bdce)) d4 | ((Bdce)) d4 | ((g^faf))"D7" c4 | ((cBdB))"G" G4 | ((Bdce)) d4 | ((dg^fa)) g4 | 
((^fagb)) ((agB^c)) |"D" ((edA^F)) D z z2 ||"D" ((dBc^f)) a4 |"G" ((Bedg)) b4 |"D" ((dBc^f)) a4 | 
"G" ((BedB)) G4 | G^FAG E4 | cBdc A4 | GcBe ^d^fba | g^fag ebge | =dBc^f a4 | BedB G4 | DB,C^F A4 | 
B,EDB, G,4 | ((B,D^CE)) D4 | ((Bd^ce)) d4 | b^fdB gfd^c | ^cB^FD B, z z2 ||"G" ((Bdce)) d4 | 
((Bdce)) d4 |"D7" ((g^faf)) c4 |"G" ((cBdB)) G4 | FG,_A,G, F4 | EAGE C4 | B,DCE DG^FA | 
GEDB, G, z z2 |] 



